!!!OTL: VATER UNSER BETEN WIR
!!!ARE: Europa, Mitteleuropa, Deutschland, Brandenburg
!!!SCT: B0757
!!!YEM: Copyright 1995, estate of Helmut Schaffrath.
**kern
*ICvox
*Ivox
*M4/4
*k[b-]
*F:
{8f
8g
=1
4a
4a
4a
4b-
=2
2cc
4r}
{8cc
8cc
=3
8ff
8ee
8dd
8cc
8cc
8b-
8b-
8a
=4
4a
4g
4r}
{8f
8g
=5
4a
4a
4a
4b-
=6
2cc
4r}
{8cc
8cc
=7
8ff
8ee
8dd
8cc
8cc
8b-
8b-
8a
=8
4a
4g
4r}
{8e
8f
=9
4g
4g
4g
4a
=10
2b-
4r}
{8b-
8b-
=11
4a
8cc
8b-
4a
4g
=12
2f
4r}
==
!!!AGN: geistliches Volks - Lied, religioes, Gebet
!!!ONB: ESAC (Essen Associative Code) Database: BOEHME
!!!AMT: simple quadruple
!!!AIN: vox
!!!EED: Helmut Schaffrath
!!!EEV: 1.0
*-
